src/amazon-music.svg

<svg viewBox="0 0 35 28" fill="none" xmlns="http://www.w3.org/2000/svg"><path d="M0 0H35V28H0V0Z" fill="#4400FF"/><path d="M20.3972 13.3583C21.0778 12.775 21.2528 11.5694 21.1167 11.4139C20.9806 11.2389 19.7944 11.0833 19.0556 11.6083C18.9389 11.6861 18.9583 11.8028 19.0944 11.7833C19.5028 11.725 20.4167 11.6278 20.5722 11.8416C20.7278 12.0555 20.3972 12.9111 20.2417 13.3C20.2028 13.3972 20.3 13.4361 20.3972 13.3583ZM28.7 7.54442C28.6095 7.40697 28.4848 7.29532 28.3383 7.22035C28.1918 7.14538 28.0283 7.10965 27.8639 7.11664C27.3583 7.11664 27.0861 7.34998 26.8722 7.83609H26.8528V7.29164C26.8333 7.23331 26.7944 7.19442 26.7167 7.19442H26.0556C25.9778 7.19442 25.9194 7.25275 25.9194 7.31109V10.9083C25.9194 10.9861 25.9778 11.025 26.0556 11.0444H26.775C26.8528 11.0444 26.9111 10.9861 26.9111 10.9083V8.96387C26.9111 8.73053 26.9306 8.4972 27.0278 8.28331C27.1056 8.10831 27.2611 7.99164 27.4556 7.99164C27.9611 7.99164 27.9028 8.57498 27.9028 8.96387V10.9278C27.9028 10.9861 27.9611 11.0444 28.0389 11.0444H28.7583C28.8361 11.0444 28.8944 10.9861 28.8944 10.9278V8.65276C28.875 8.3222 28.875 7.83609 28.7 7.54442ZM21.525 18.2194L20.8056 17.9472C20.5943 17.8787 20.3968 17.7733 20.2222 17.6361C20.125 17.5389 20.0667 17.4222 20.0667 17.2666C20.0667 16.8778 20.3583 16.6639 20.9417 16.6639C21.2722 16.6639 21.6028 16.7222 21.9333 16.8194C22.0306 16.8583 22.1083 16.8583 22.1472 16.8583C22.225 16.8583 22.2639 16.8 22.2639 16.7028V16.45C22.2647 16.3894 22.2514 16.3295 22.225 16.275C22.1861 16.2361 22.1472 16.1972 22.0694 16.1778C21.6806 16.0416 21.2917 15.9639 20.9028 15.9639C20.3972 15.9639 19.9889 16.0805 19.6778 16.3333C19.537 16.4519 19.4252 16.6012 19.351 16.7698C19.2769 16.9383 19.2423 17.1216 19.25 17.3055C19.25 17.9083 19.5806 18.3361 20.2611 18.5889L21.0389 18.8805C21.2917 18.9778 21.4667 19.0555 21.5639 19.1528C21.6611 19.25 21.7 19.3666 21.7 19.5028C21.7063 19.5998 21.6883 19.6969 21.6475 19.7852C21.6068 19.8735 21.5446 19.9502 21.4667 20.0083C21.3111 20.125 21.0778 20.1833 20.7861 20.1833C20.3583 20.1833 19.9306 20.125 19.5222 19.9889C19.4472 19.9598 19.3688 19.9402 19.2889 19.9305C19.2111 19.9305 19.1722 19.9889 19.1722 20.0861V20.3389L19.2111 20.5139C19.2306 20.5528 19.2889 20.5916 19.3667 20.6111C19.8051 20.7877 20.2747 20.8737 20.7472 20.8639C21.2917 20.8639 21.7194 20.7278 22.05 20.475C22.2085 20.3554 22.3355 20.1992 22.4202 20.0197C22.5049 19.8401 22.5446 19.6427 22.5361 19.4444C22.5361 19.1333 22.4583 18.9 22.3028 18.7055C22.087 18.4826 21.82 18.3157 21.525 18.2194ZM19.1528 11.025C19.9306 10.6166 20.8833 10.6555 21.5833 11.025C21.6611 11.0639 21.7583 10.9861 21.7583 10.9083V10.3639C21.7583 10.2861 21.7194 10.2083 21.6417 10.1694C21.2355 9.95565 20.7771 9.86127 20.3194 9.8972L21.5056 8.20553C21.6222 8.04998 21.6806 7.95275 21.6806 7.87498V7.4472C21.6806 7.36942 21.6222 7.31109 21.5444 7.31109H19.2306C19.1528 7.31109 19.0944 7.36942 19.0944 7.4472V7.95276C19.0944 8.03053 19.1528 8.08887 19.2306 8.08887H20.4361L19.0556 10.0528C18.9778 10.1694 18.9778 10.325 18.9778 10.4028V10.9278C18.9972 10.9861 19.075 11.0833 19.1528 11.025ZM23.7222 7.11664C22.7111 7.11664 22.1472 7.9722 22.1472 9.08053C22.1472 10.1694 22.6917 11.0444 23.7222 11.0444C24.6944 11.0444 25.3167 10.1889 25.3167 9.11942C25.3167 7.99164 24.7528 7.11664 23.7222 7.11664ZM23.7222 10.3055C23.1778 10.3055 23.1778 9.39164 23.1778 8.94442C23.1778 8.51664 23.2167 7.81664 23.7222 7.81664C23.9361 7.81664 24.0917 7.91387 24.1694 8.16664C24.2667 8.45831 24.2667 8.80831 24.2667 9.09998C24.2861 9.56664 24.2667 10.3055 23.7222 10.3055ZM23.8389 14.2916C23.7608 14.2876 23.6827 14.2993 23.6092 14.326C23.5357 14.3527 23.4684 14.3939 23.4111 14.4472C23.3139 14.5639 23.2556 14.7 23.2556 14.875C23.2556 15.05 23.3139 15.1861 23.4111 15.3028C23.5083 15.4194 23.6639 15.4583 23.8389 15.4583C23.917 15.4624 23.9951 15.4507 24.0686 15.424C24.1421 15.3973 24.2094 15.356 24.2667 15.3028C24.3639 15.1861 24.4222 15.05 24.4222 14.875C24.4222 14.7 24.3639 14.5639 24.2667 14.4472C24.1694 14.35 24.0139 14.2916 23.8389 14.2916ZM24.1306 16.1778H23.5472C23.4111 16.1778 23.3528 16.2361 23.3528 16.3722V20.7083C23.3528 20.825 23.4111 20.9028 23.5472 20.9028H24.1306C24.2667 20.9028 24.325 20.8444 24.325 20.7083V16.3528C24.325 16.2361 24.2667 16.1778 24.1306 16.1778ZM8.18612 8.61387C7.77778 8.65275 7.25278 8.69164 6.88334 8.8472C6.66179 8.93446 6.47225 9.08743 6.34017 9.28555C6.20809 9.48367 6.13979 9.71747 6.14445 9.95553C6.14445 10.6555 6.59167 11.025 7.19445 11.025C7.68056 11.025 7.95278 10.9083 8.34167 10.5389C8.45834 10.7139 8.51667 10.8111 8.75001 10.9861C8.80834 11.0055 8.86667 11.0055 8.90556 10.9666L9.43056 10.5194C9.48889 10.4805 9.46945 10.4028 9.43056 10.3444C9.29445 10.1694 9.15834 10.0333 9.15834 9.7222V8.65276C9.15834 8.20553 9.19723 7.7972 8.84723 7.48609C8.57501 7.23331 8.12778 7.15553 7.79723 7.15553C7.13612 7.15553 6.39723 7.38887 6.24167 8.20553C6.22223 8.28331 6.28056 8.34164 6.33889 8.34164L7.01945 8.41942C7.07778 8.41942 7.13612 8.36109 7.13612 8.30276C7.19445 8.03053 7.42778 7.89442 7.7 7.89442C7.83612 7.89442 8.01112 7.95275 8.08889 8.06942C8.18612 8.20553 8.16667 8.39998 8.16667 8.55553V8.61387H8.18612ZM8.05001 10.0333C7.93334 10.2278 7.75834 10.3444 7.56389 10.3444C7.29167 10.3444 7.13612 10.15 7.13612 9.85831C7.13612 9.27498 7.66112 9.17776 8.16667 9.17776V9.33331C8.18612 9.56664 8.18612 9.79998 8.05001 10.0333ZM11.9194 15.9833C11.3167 15.9833 10.6944 16.1972 10.0917 16.625C9.89723 16.1972 9.48889 15.9833 8.92501 15.9833C8.36112 15.9833 7.77778 16.1778 7.19445 16.5861L7.13612 16.2944C7.11667 16.2361 7.09723 16.1778 7.05834 16.1583L6.92223 16.1194H6.51389C6.39723 16.1194 6.31945 16.1778 6.31945 16.2944V20.5139C6.31945 20.6305 6.37778 20.6889 6.51389 20.6889H7.05834C7.175 20.6889 7.25278 20.6305 7.25278 20.5139V17.0916C7.68056 16.8194 8.12778 16.7028 8.61389 16.7028C8.86667 16.7028 9.06112 16.7805 9.17778 16.9166C9.29445 17.0528 9.35278 17.2861 9.35278 17.5778V20.4944C9.35278 20.6111 9.41112 20.6694 9.54723 20.6694H10.0917C10.2083 20.6694 10.2861 20.6111 10.2861 20.4944V17.1111C10.7528 16.8389 11.2 16.7028 11.6472 16.7028C11.9 16.7028 12.0944 16.7805 12.2111 16.9166C12.3278 17.0528 12.3861 17.2861 12.3861 17.5778V20.4944C12.3861 20.6111 12.4444 20.6694 12.5806 20.6694H13.125C13.2417 20.6694 13.3194 20.6111 13.3194 20.4944V17.325C13.3194 16.8972 13.2028 16.5666 12.9694 16.3139C12.6661 16.0897 12.2965 15.9734 11.9194 15.9833ZM18.2194 16.1778H17.675C17.5583 16.1778 17.5 16.2361 17.5 16.3528V19.7361C17.1108 20.0054 16.651 20.1541 16.1778 20.1639C15.9056 20.1639 15.6917 20.0861 15.5556 19.9305C15.4194 19.775 15.3611 19.5416 15.3611 19.2111V16.3528C15.3611 16.2361 15.3028 16.1778 15.1861 16.1778H14.6417C14.525 16.1778 14.4667 16.2361 14.4667 16.3528V19.5028C14.4667 19.95 14.5833 20.2805 14.8167 20.5139C14.9489 20.6385 15.1048 20.7355 15.2751 20.7989C15.4454 20.8624 15.6267 20.8911 15.8083 20.8833C16.4111 20.8833 16.9944 20.6694 17.5583 20.2611L17.6167 20.5722C17.6361 20.6305 17.6556 20.6889 17.6944 20.7083L17.8306 20.7472H18.2194C18.3361 20.7472 18.3944 20.6889 18.3944 20.5722V16.3528C18.3944 16.2361 18.3361 16.1778 18.2194 16.1778ZM28.7583 19.9694L28.6222 19.9889C28.3111 20.0666 28.0389 20.125 27.7667 20.125C27.2611 20.125 26.8917 19.9889 26.6389 19.7361C26.4056 19.4639 26.2889 19.0555 26.2889 18.4916V18.375C26.2889 17.7916 26.4056 17.3833 26.6389 17.1111C26.8722 16.8389 27.2611 16.7222 27.7861 16.7222C28.0583 16.7222 28.3111 16.7611 28.5639 16.8389L28.7194 16.8583C28.7972 16.8583 28.8361 16.8 28.8361 16.6639V16.4111L28.7972 16.2166C28.7778 16.1778 28.7194 16.1389 28.6417 16.1194C28.3111 16.0028 27.9806 15.9444 27.6306 15.9444C26.8917 15.9444 26.3083 16.1583 25.9 16.5861C25.4917 17.0139 25.2972 17.6166 25.2972 18.4139C25.2972 19.2111 25.4917 19.8139 25.8806 20.2222C26.2694 20.6305 26.8333 20.8444 27.5917 20.8444C28 20.8444 28.3694 20.7861 28.6611 20.65L28.8167 20.5528L28.8556 20.3778V20.125C28.875 20.0472 28.8361 19.9694 28.7583 19.9694ZM10.0139 11.0444H10.7139C10.7917 11.0444 10.85 10.9861 10.85 10.9083V9.00275C10.85 8.59442 10.8306 8.01109 11.3361 8.01109C11.8417 8.01109 11.7639 8.59442 11.7639 9.00275V10.9083C11.7639 10.9861 11.8222 11.025 11.9 11.0444H12.6C12.6778 11.0444 12.7361 10.9861 12.7361 10.9083V9.00275C12.7361 8.78887 12.7361 8.4972 12.7944 8.3222C12.8722 8.1472 13.0472 8.03053 13.2222 8.03053C13.4167 8.03053 13.5917 8.10831 13.6306 8.34164C13.6694 8.47776 13.65 8.86664 13.65 9.0222V10.9278C13.65 11.0055 13.7083 11.0444 13.7861 11.0639H14.4861C14.5639 11.0639 14.6222 11.0055 14.6222 10.9278V8.65276C14.6222 8.26387 14.6611 7.81664 14.4472 7.52498C14.2528 7.25275 13.9222 7.13609 13.6306 7.13609C13.4198 7.13118 13.2128 7.19227 13.0385 7.31081C12.8642 7.42935 12.7313 7.59941 12.6583 7.7972C12.4639 7.34998 12.1917 7.13609 11.7444 7.13609C11.3167 7.13609 10.9861 7.34998 10.8111 7.7972H10.7917V7.33053C10.7917 7.2722 10.7333 7.21387 10.6556 7.21387H9.99445C9.91667 7.21387 9.85834 7.2722 9.85834 7.34998V10.9472C9.89723 10.9861 9.93612 11.0444 10.0139 11.0444ZM17.325 8.61387C16.9167 8.65275 16.3917 8.69164 16.0222 8.8472C15.8007 8.93446 15.6111 9.08743 15.4791 9.28555C15.347 9.48367 15.2787 9.71747 15.2833 9.95553C15.2833 10.6555 15.7306 11.025 16.3333 11.025C16.8194 11.025 17.0917 10.9083 17.4806 10.5389C17.6167 10.7139 17.6556 10.8111 17.8889 10.9861C17.9472 11.0055 18.0056 11.0055 18.0444 10.9666L18.5694 10.5194C18.6278 10.4805 18.6083 10.4028 18.5694 10.3444C18.4333 10.1694 18.2972 10.0333 18.2972 9.7222V8.65276C18.2972 8.20553 18.3361 7.7972 17.9861 7.48609C17.7139 7.23331 17.2667 7.15553 16.9361 7.15553C16.275 7.15553 15.5361 7.38887 15.3806 8.20553C15.3611 8.28331 15.4194 8.34164 15.4778 8.34164L16.1583 8.41942C16.2167 8.41942 16.275 8.36109 16.275 8.30276C16.3333 8.03053 16.5667 7.89442 16.8389 7.89442C16.975 7.89442 17.15 7.95275 17.2278 8.06942C17.325 8.20553 17.3056 8.39998 17.3056 8.55553V8.61387H17.325ZM17.325 9.31387C17.325 9.58609 17.325 9.79998 17.1889 10.0333C17.0722 10.2278 16.8972 10.3444 16.7028 10.3444C16.4306 10.3444 16.275 10.15 16.275 9.85831C16.275 9.27498 16.8 9.17776 17.3056 9.17776V9.31387H17.325Z" fill="white"/><path d="M9.3528 11.6278C10.9084 12.9889 12.9695 13.7861 15.2639 13.7861C16.8972 13.7861 18.7834 13.3 20.1056 12.3667C20.3195 12.2111 20.1445 11.9778 19.9111 12.075C18.2401 12.7635 16.4355 13.0668 14.6313 12.9624C12.827 12.8581 11.0694 12.3487 9.48892 11.4722C9.33336 11.375 9.21669 11.5306 9.3528 11.6278Z" fill="white"/></svg>

<svg viewBox="0 0 35 28" fill="none" xmlns="http://www.w3.org/2000/svg"><path d="M0 0h35v28H0V0Z" fill="#4400FF"/><path d="M20.397 13.358c.68-.583.856-1.789.72-1.944-.136-.175-1.323-.33-2.061.194-.117.078-.098.195.038.175.409-.058 1.323-.155 1.478.059.156.213-.175 1.07-.33 1.458-.04.097.058.136.155.058ZM28.7 7.544a.953.953 0 0 0-.836-.427c-.506 0-.778.233-.992.72h-.02v-.545c-.019-.059-.058-.098-.135-.098h-.661c-.078 0-.137.059-.137.117v3.597c0 .078.059.117.137.136h.719a.133.133 0 0 0 .136-.136V8.964c0-.233.02-.467.117-.68a.464.464 0 0 1 .428-.292c.505 0 .447.583.447.972v1.964c0 .058.058.116.136.116h.72c.077 0 .135-.058.135-.116V8.653c-.019-.33-.019-.817-.194-1.109ZM21.525 18.22l-.72-.272a1.885 1.885 0 0 1-.583-.31.498.498 0 0 1-.155-.37c0-.39.291-.603.875-.603.33 0 .66.058.991.155a.544.544 0 0 0 .214.04c.078 0 .117-.059.117-.156v-.253a.39.39 0 0 0-.039-.175c-.039-.039-.078-.078-.156-.097a3.524 3.524 0 0 0-1.166-.214c-.506 0-.914.117-1.225.37a1.206 1.206 0 0 0-.428.971c0 .603.33 1.031 1.011 1.284l.778.292c.253.097.428.174.525.272a.468.468 0 0 1 .136.35.583.583 0 0 1-.233.505c-.156.117-.39.175-.68.175a3.99 3.99 0 0 1-1.265-.194.967.967 0 0 0-.233-.059c-.078 0-.117.059-.117.156v.253l.04.175c.019.039.077.078.155.097a3.5 3.5 0 0 0 1.38.253c.545 0 .972-.136 1.303-.389a1.225 1.225 0 0 0 .486-1.03c0-.312-.078-.545-.233-.74a1.906 1.906 0 0 0-.778-.486Zm-2.372-7.194a2.676 2.676 0 0 1 2.43 0c.078.039.175-.039.175-.117v-.544a.214.214 0 0 0-.116-.195 2.43 2.43 0 0 0-1.323-.272l1.187-1.691c.116-.156.175-.253.175-.331v-.428a.133.133 0 0 0-.137-.136h-2.313a.133.133 0 0 0-.137.136v.506c0 .078.059.136.137.136h1.205l-1.38 1.964c-.078.116-.078.272-.078.35v.525c.02.058.097.155.175.097Zm4.57-3.908c-1.012 0-1.576.855-1.576 1.964 0 1.088.545 1.963 1.575 1.963.972 0 1.595-.855 1.595-1.925 0-1.127-.564-2.002-1.595-2.002Zm0 3.189c-.545 0-.545-.914-.545-1.362 0-.427.039-1.127.544-1.127.214 0 .37.097.447.35.098.291.098.641.098.933.02.467 0 1.206-.545 1.206Zm.116 3.986a.585.585 0 0 0-.428.155.64.64 0 0 0-.155.428.64.64 0 0 0 .155.428c.097.116.253.155.428.155a.583.583 0 0 0 .428-.155.64.64 0 0 0 .155-.428.64.64 0 0 0-.155-.428.606.606 0 0 0-.428-.155Zm.292 1.886h-.584c-.136 0-.194.058-.194.194v4.336c0 .117.058.195.194.195h.584c.136 0 .194-.059.194-.195v-4.355c0-.117-.058-.175-.194-.175ZM8.186 8.614c-.408.039-.933.078-1.303.233a1.167 1.167 0 0 0-.739 1.109c0 .7.448 1.069 1.05 1.069.487 0 .759-.117 1.148-.486.116.175.175.272.408.447.058.02.117.02.156-.02l.525-.447c.058-.039.038-.116 0-.175-.137-.175-.273-.31-.273-.622v-1.07c0-.446.04-.855-.31-1.166-.273-.253-.72-.33-1.05-.33-.662 0-1.4.233-1.556 1.05a.106.106 0 0 0 .097.136l.68.077a.125.125 0 0 0 .117-.116c.058-.272.292-.409.564-.409.136 0 .311.059.389.175.097.137.078.331.078.487v.058h.02Zm-.136 1.42c-.117.194-.292.31-.486.31-.272 0-.428-.194-.428-.486 0-.583.525-.68 1.03-.68v.155c.02.234.02.467-.116.7Zm3.87 5.95c-.603 0-1.226.213-1.828.641-.195-.428-.603-.642-1.167-.642-.564 0-1.147.195-1.73.603l-.059-.292c-.02-.058-.039-.116-.078-.136l-.136-.039h-.408c-.117 0-.195.059-.195.175v4.22c0 .117.059.175.195.175h.544c.117 0 .195-.058.195-.175v-3.422a2.457 2.457 0 0 1 1.36-.39c.254 0 .448.078.565.215.116.136.175.37.175.66v2.917c0 .117.058.175.194.175h.545c.116 0 .194-.058.194-.175v-3.383c.467-.272.914-.408 1.361-.408.253 0 .447.078.564.214.117.136.175.37.175.66v2.917c0 .117.058.175.195.175h.544c.117 0 .194-.058.194-.175v-3.169c0-.428-.116-.758-.35-1.011a1.692 1.692 0 0 0-1.05-.33Zm6.3.194h-.545c-.117 0-.175.058-.175.175v3.383c-.39.27-.849.418-1.322.428-.272 0-.486-.078-.622-.234-.137-.155-.195-.388-.195-.719v-2.858c0-.117-.058-.175-.175-.175h-.544c-.117 0-.175.058-.175.175v3.15c0 .447.116.777.35 1.01a1.36 1.36 0 0 0 .991.37c.603 0 1.186-.214 1.75-.622l.059.311c.02.059.039.117.077.136l.137.04h.388c.117 0 .175-.06.175-.176v-4.22c0-.116-.058-.174-.175-.174Zm10.538 3.791-.136.02c-.31.078-.583.136-.855.136-.506 0-.875-.136-1.128-.389-.233-.272-.35-.68-.35-1.244v-.117c0-.583.117-.992.35-1.264.233-.272.622-.389 1.147-.389.272 0 .525.04.778.117l.155.02c.078 0 .117-.059.117-.195v-.253l-.039-.194c-.02-.04-.078-.078-.155-.098a2.992 2.992 0 0 0-1.011-.175c-.74 0-1.323.214-1.731.642-.408.428-.603 1.03-.603 1.828 0 .797.195 1.4.584 1.808.388.409.952.622 1.71.622.409 0 .778-.058 1.07-.194l.156-.097.039-.175v-.253c.019-.078-.02-.156-.098-.156Zm-18.744-8.925h.7a.133.133 0 0 0 .136-.136V9.003c0-.409-.02-.992.486-.992s.428.583.428.992v1.905c0 .078.058.117.136.136h.7a.133.133 0 0 0 .136-.136V9.003c0-.214 0-.506.058-.68a.485.485 0 0 1 .428-.292c.195 0 .37.077.409.31.038.137.019.526.019.681v1.906c0 .077.058.116.136.136h.7a.133.133 0 0 0 .136-.136V8.653c0-.39.04-.836-.175-1.128-.194-.272-.525-.389-.816-.389a1.011 1.011 0 0 0-.973.661c-.194-.447-.466-.66-.914-.66-.427 0-.758.213-.933.66h-.02v-.466c0-.059-.058-.117-.135-.117h-.662a.133.133 0 0 0-.136.136v3.597c.04.04.078.097.156.097Zm7.311-2.43c-.408.039-.933.078-1.303.233a1.166 1.166 0 0 0-.739 1.109c0 .7.448 1.069 1.05 1.069.486 0 .759-.117 1.148-.486.136.175.175.272.408.447.058.02.117.02.155-.02l.525-.447c.059-.039.04-.116 0-.175-.136-.175-.272-.31-.272-.622v-1.07c0-.446.04-.855-.31-1.166-.273-.253-.72-.33-1.05-.33-.662 0-1.4.233-1.556 1.05a.106.106 0 0 0 .097.136l.68.077a.125.125 0 0 0 .117-.116c.058-.272.292-.409.564-.409.136 0 .311.059.389.175.097.137.078.331.078.487v.058h.019Zm0 .7c0 .272 0 .486-.136.72-.117.194-.292.31-.486.31-.272 0-.428-.194-.428-.486 0-.583.525-.68 1.03-.68v.136h.02Z" fill="white"/><path d="M9.353 11.628c1.555 1.36 3.617 2.158 5.91 2.158 1.634 0 3.52-.486 4.843-1.42.213-.155.038-.388-.195-.291a12.034 12.034 0 0 1-10.422-.603c-.156-.097-.272.059-.136.156Z" fill="white"/></svg>
